remix/Development/git-pull-request-line.svg

<svg viewBox="0 0 24 24" fill="currentColor" xmlns="http://www.w3.org/2000/svg"><path d="M15 5H17C18.1046 5 19 5.89543 19 7V15.1707C20.1652 15.5825 21 16.6938 21 18C21 19.6569 19.6569 21 18 21C16.3431 21 15 19.6569 15 18C15 16.6938 15.8348 15.5825 17 15.1707V7H15V10L10.5 6L15 2V5ZM5 8.82929C3.83481 8.41746 3 7.30622 3 6C3 4.34315 4.34315 3 6 3C7.65685 3 9 4.34315 9 6C9 7.30622 8.16519 8.41746 7 8.82929V15.1707C8.16519 15.5825 9 16.6938 9 18C9 19.6569 7.65685 21 6 21C4.34315 21 3 19.6569 3 18C3 16.6938 3.83481 15.5825 5 15.1707V8.82929ZM6 7C6.55228 7 7 6.55228 7 6C7 5.44772 6.55228 5 6 5C5.44772 5 5 5.44772 5 6C5 6.55228 5.44772 7 6 7ZM6 19C6.55228 19 7 18.5523 7 18C7 17.4477 6.55228 17 6 17C5.44772 17 5 17.4477 5 18C5 18.5523 5.44772 19 6 19ZM18 19C18.5523 19 19 18.5523 19 18C19 17.4477 18.5523 17 18 17C17.4477 17 17 17.4477 17 18C17 18.5523 17.4477 19 18 19Z"/></svg>

<svg viewBox="0 0 24 24" xmlns="http://www.w3.org/2000/svg"><path fill="none" d="M0 0h24v24H0Z"/><path d="M15 5h2v0c1.1 0 2 .89 2 2v8.17 -.001c1.56.55 2.38 2.26 1.82 3.82 -.56 1.56-2.27 2.38-3.83 1.82 -1.57-.56-2.39-2.27-1.83-3.83 .3-.86.97-1.53 1.82-1.83V6.97h-2v3l-4.5-4 4.5-4v3ZM5 8.83v0C3.43 8.27 2.61 6.56 3.17 5c.55-1.57 2.26-2.39 3.82-1.83 1.56.55 2.38 2.26 1.82 3.82 -.31.85-.98 1.52-1.83 1.82v6.34h0c1.56.55 2.38 2.26 1.82 3.82 -.56 1.56-2.27 2.38-3.83 1.82 -1.57-.56-2.39-2.27-1.83-3.83 .3-.86.97-1.53 1.82-1.83V8.79ZM6 7v0c.55 0 1-.45 1-1 0-.56-.45-1-1-1v0c-.56 0-1 .44-1 1 0 .55.44 1 1 1Zm0 12v0c.55 0 1-.45 1-1 0-.56-.45-1-1-1v0c-.56 0-1 .44-1 1 0 .55.44 1 1 1Zm12 0v0c.55 0 1-.45 1-1 0-.56-.45-1-1-1v0c-.56 0-1 .44-1 1 0 .55.44 1 1 1Z"/></svg>
